X:540
T:Tant con je vivrai
Z:Jack Campin, http://www.campin.me.uk/
F:Jack Campin's Nine-Note Tunebook
% last edit 05-03-2013
C:Adam de la Halle
M:3/4
L:1/8
Q:1/4=120
V:1
V:2
V:3 transpose -12
K:GLyd
[V:1] B4 c2|B2 (3AGF G2|A4 B2|A2 (3GFE D2|E4 z2||F6|A2 ^GF A2|
[V:2] D4 E2|F2   E2  D2|E6   |E2   F4    |A4 z2||B6|A2 ^GF E2|
[V:3] B6   |B6         |A6   |A2   B4    |A4 z2||B6|d6       |
%
[V:1] B4 z2|B6 |A2 ^GF G2|A4 z2|A4 GF|ED E2 F2|G6|]
[V:2] F4 z2|F6 |E2  D4   |E4 z2|E6   |D2 C4   |D6|]
[V:3] B4 z2|B6-|B6       |A4 z2|A6-  |A6      |G6|]

